dist/svgs/geomicons-open/icons/facebook.svg

<svg xmlns="http://www.w3.org/2000/svg" viewBox="0 0 32 32"><path d="M8 12h5V8c0-6 4-7 11-6v5c-4 0-5 0-5 3v2h5l-1 6h-4v12h-6V18H8z"/></svg>

<svg id="facebook" xmlns="http://www.w3.org/2000/svg" viewBox="0 0 32 32" width="32" height="32" fill="currentcolor">
  <path d="M8 12 L13 12 L13 8 C13 2 17 1 24 2 L24 7 C20 7 19 7 19 10 L19 12 L24 12 L23 18 L19 18 L19 30 L13 30 L13 18 L8 18 z"></path>
</svg>
